ui/StatusQ/src/assets/img/icons/homepage/market.svg

<svg fill="none" height="20" viewBox="0 0 21 20" width="21" xmlns="http://www.w3.org/2000/svg"><g fill="#000"><path d="m15.25 1.5c.4142 0 .75-.33579.75-.75 0-.414213-.3358-.75000002-.75-.75l-11.25.00000023c-2.20914.0000001-4.0000001 1.79085977-4 3.99999977l.00000052 12c.0000001 2.2091 1.79085948 4 3.99999948 4h12c2.2091 0 4-1.7909 4-4v-3.25c0-.4142-.3358-.75-.75-.75s-.75.3358-.75.75v3.25c0 1.3807-1.1193 2.5-2.5 2.5h-12c-1.38071 0-2.5-1.1193-2.5-2.5v-12c0-1.38071 1.11929-2.5 2.5-2.5z"/><path clip-rule="evenodd" d="m20.0303 4.46967c.2929.29289.2929.76777 0 1.06066l-6.156 6.15607c-.1783.1783-.4615.1959-.6605.0411l-3.76054-2.92483c-.20624-.1604-.5012-.13498-.67694.05834l-4.22136 4.64349c-.27863.3065-.75297.3291-1.05946.0505-.30649-.2787-.32908-.753-.05045-1.0595l5.15573-5.67131c.17575-.19332.47071-.21874.67694-.05834l3.81168 2.96467c.1991.15481.4822.13718.6606-.04113l5.2197-5.21972c.2929-.29289.7677-.29289 1.0606 0z" fill-rule="evenodd"/></g></svg>

<svg width="21" height="20" viewBox="0 0 21 20" fill="none" xmlns="http://www.w3.org/2000/svg">
<g id="Frame 31747">
<path id="Icon" d="M15.25 1.5C15.6642 1.5 16 1.16421 16 0.75C16 0.335787 15.6642 -1.81058e-08 15.25 0L4 2.29105e-07C1.79086 3.2567e-07 -9.65645e-08 1.79086 0 4L5.24537e-07 16C6.21101e-07 18.2091 1.79086 20 4 20H16C18.2091 20 20 18.2091 20 16V12.75C20 12.3358 19.6642 12 19.25 12C18.8358 12 18.5 12.3358 18.5 12.75V16C18.5 17.3807 17.3807 18.5 16 18.5H4C2.61929 18.5 1.5 17.3807 1.5 16L1.5 4C1.5 2.61929 2.61929 1.5 4 1.5L15.25 1.5Z" fill="black"/>
<path id="Vector 67 (Stroke)" fill-rule="evenodd" clip-rule="evenodd" d="M20.0303 4.46967C20.3232 4.76256 20.3232 5.23744 20.0303 5.53033L13.8743 11.6864C13.696 11.8647 13.4128 11.8823 13.2138 11.7275L9.45326 8.80267C9.24702 8.64227 8.95206 8.66769 8.77632 8.86101L4.55496 13.5045C4.27633 13.811 3.80199 13.8336 3.4955 13.555C3.18901 13.2763 3.16642 12.802 3.44505 12.4955L8.60078 6.82419C8.77653 6.63087 9.07149 6.60545 9.27772 6.76585L13.0894 9.73052C13.2885 9.88533 13.5716 9.8677 13.75 9.68939L18.9697 4.46967C19.2626 4.17678 19.7374 4.17678 20.0303 4.46967Z" fill="black"/>
</g>
</svg>
